img/svg/advantages-image-3.svg

<svg width="69" height="69" viewBox="0 0 69 69" fill="none" xmlns="http://www.w3.org/2000/svg">
<g clip-path="url(#clip0)">
<path d="M60.6664 6.89746H36.6288C36.3243 6.89746 36.0336 7.01765 35.8195 7.23281L14.0711 28.9812C13.856 29.1953 13.7358 29.4872 13.7358 29.7905V32.0798H11.4464C11.1431 32.0798 10.8513 32.2 10.6372 32.4152L1.14916 41.902C0.417841 42.6311 0 43.6407 0 44.6698C0 45.7012 0.417841 46.7107 1.14809 47.4376L21.2687 67.5582C21.9956 68.2897 23.0051 68.7086 24.0376 68.7086C25.0701 68.7086 26.0796 68.2897 26.8042 67.5605L36.2933 58.0714C36.5085 57.8573 36.6287 57.5667 36.6287 57.2622V54.9728H38.918C39.2225 54.9728 39.5132 54.8526 39.7272 54.6375L61.4757 32.8891C61.6908 32.675 61.811 32.3831 61.811 32.0798V8.0422C61.811 7.41027 61.2994 6.89746 60.6664 6.89746ZM59.5217 31.6059L38.4442 52.6833H35.4842C34.8524 52.6833 34.3396 53.1949 34.3396 53.8279V56.788L25.1846 65.944C24.5837 66.5472 23.4952 66.5495 22.8907 65.9417L2.76553 45.8167C2.45768 45.5111 2.28934 45.1047 2.28934 44.6698C2.28934 44.237 2.45755 43.8307 2.76661 43.5229L11.9203 34.3691H14.8804C15.5122 34.3691 16.025 33.8563 16.025 33.2245V30.2645L37.1026 9.1868H59.5217V31.6059Z" fill="#2D486B"/>
<path d="M52.6536 10.3314C49.4979 10.3314 46.9303 12.8988 46.9303 16.0546C46.9303 19.2105 49.4978 21.7779 52.6536 21.7779C55.8094 21.7779 58.3769 19.2105 58.3769 16.0546C58.3769 12.8988 55.8095 10.3314 52.6536 10.3314ZM52.6536 19.4886C50.7604 19.4886 49.2197 17.9479 49.2197 16.0546C49.2197 14.1614 50.7604 12.6207 52.6536 12.6207C54.5469 12.6207 56.0876 14.1614 56.0876 16.0546C56.0876 17.9479 54.5469 19.4886 52.6536 19.4886Z" fill="#2D486B"/>
<path d="M68.3434 0.364911C67.8958 -0.0825746 67.1724 -0.0825746 66.7249 0.364911L51.8444 15.2454C51.3968 15.693 51.3968 16.4165 51.8444 16.8639C52.0676 17.0871 52.3607 17.1993 52.6537 17.1993C52.9468 17.1993 53.2397 17.0871 53.4629 16.8639L68.3434 1.98356C68.7909 1.53594 68.7909 0.812531 68.3434 0.364911Z" fill="#2D486B"/>
<path d="M36.9639 16.3947L22.0835 31.2751L23.7023 32.8939L38.5827 18.0135L36.9639 16.3947Z" fill="#2D486B"/>
<path d="M28.9509 31.2703L25.5167 34.7045L27.1355 36.3233L30.5697 32.8891L28.9509 31.2703Z" fill="#2D486B"/>
<path d="M40.3968 19.8228L31.2396 28.98L32.8584 30.5988L42.0156 21.4416L40.3968 19.8228Z" fill="#2D486B"/>
<path d="M43.8319 23.2627L28.9515 38.143L30.5703 39.7618L45.4507 24.8815L43.8319 23.2627Z" fill="#2D486B"/>
<path d="M24.8479 49.5848L24.4347 49.1715C22.9616 47.7007 20.6344 47.4729 18.9072 48.6279L16.4554 50.2544C15.6267 50.8096 14.5163 50.6974 13.8136 49.9969L13.405 49.5883C12.5935 48.7699 12.5935 47.4398 13.4015 46.6248L14.5428 45.4835C15.3611 44.672 16.6913 44.672 17.5096 45.4835L19.1213 43.8582C17.4147 42.1652 14.6377 42.1664 12.9276 43.8617L11.7795 45.0098C10.0865 46.7164 10.0865 49.4933 11.7818 51.2035L12.1951 51.6167C13.6682 53.0876 15.9964 53.3153 17.7225 52.1604L20.1743 50.5337C21.0042 49.9808 22.1145 50.0919 22.8161 50.7913L23.2247 51.1998C24.0363 52.0182 24.0363 53.3483 23.2282 54.1634L22.087 55.3046C21.2686 56.1161 19.9385 56.1161 19.1201 55.3046L17.5084 56.93C18.3611 57.7758 19.4817 58.1994 20.6025 58.1994C21.7243 58.1994 22.8471 57.7748 23.7021 56.9266L24.8502 55.7785C26.5432 54.0717 26.5432 51.2949 24.8479 49.5848Z" fill="#2D486B"/>
<path d="M12.2532 42.7164L10.6344 44.3351L11.7788 45.4796L13.3976 43.8608L12.2532 42.7164Z" fill="#2D486B"/>
<path d="M24.8453 55.3075L23.2265 56.9263L24.371 58.0707L25.9898 56.4519L24.8453 55.3075Z" fill="#2D486B"/>
<path d="M17.9787 34.704L16.3599 36.3228L18.6488 38.6117L20.2676 36.9929L17.9787 34.704Z" fill="#2D486B"/>
<path d="M22.5571 39.2823L20.9383 40.9011L23.2272 43.19L24.846 41.5712L22.5571 39.2823Z" fill="#2D486B"/>
<path d="M27.1353 43.8611L25.5165 45.4799L27.8054 47.7688L29.4242 46.15L27.1353 43.8611Z" fill="#2D486B"/>
<path d="M31.7135 48.4394L30.0947 50.0582L32.3836 52.3471L34.0024 50.7283L31.7135 48.4394Z" fill="#2D486B"/>
<path d="M34.0033 40.4266L32.3845 42.0454L38.1068 47.7677L39.7256 46.1489L34.0033 40.4266Z" fill="#2D486B"/>
<path d="M37.4362 36.9933L35.8174 38.6121L41.5396 44.3344L43.1584 42.7156L37.4362 36.9933Z" fill="#2D486B"/>
<path d="M40.87 33.5645L39.2512 35.1833L44.9735 40.9055L46.5923 39.2867L40.87 33.5645Z" fill="#2D486B"/>
<path d="M44.304 30.1277L42.6853 31.7464L48.4076 37.4687L50.0263 35.85L44.304 30.1277Z" fill="#2D486B"/>
<path d="M47.7392 26.6917L46.1204 28.3105L51.8427 34.0327L53.4615 32.414L47.7392 26.6917Z" fill="#2D486B"/>
</g>
<defs>
<clipPath id="clip0">
<rect y="0.0292969" width="68.6791" height="68.6791" fill="white"/>
</clipPath>
</defs>
</svg>

<svg width="69" height="69" viewBox="0 0 69 69" fill="none" xmlns="http://www.w3.org/2000/svg"><g clip-path="url(#clip0)" fill="#2D486B"><path d="M60.666 6.897H36.63c-.305 0-.595.12-.81.336L14.071 28.98a1.142 1.142 0 00-.335.81v2.289h-2.29c-.303 0-.595.12-.809.335L1.15 41.902A3.936 3.936 0 000 44.67c0 1.031.418 2.04 1.148 2.768l20.12 20.12a3.929 3.929 0 002.77 1.15 3.927 3.927 0 002.766-1.147l9.49-9.49a1.14 1.14 0 00.335-.809v-2.29h2.289c.304 0 .595-.12.81-.334l21.748-21.749c.215-.214.335-.506.335-.81V8.043c0-.632-.512-1.145-1.145-1.145zm-1.144 24.709L38.444 52.683h-2.96c-.632 0-1.144.512-1.144 1.145v2.96l-9.155 9.156c-.601.603-1.69.605-2.294-.002L2.766 45.817a1.602 1.602 0 01-.477-1.147c0-.433.169-.84.478-1.147l9.153-9.154h2.96c.632 0 1.145-.513 1.145-1.145v-2.96L37.103 9.188h22.419v22.419z"/><path d="M52.654 10.331a5.73 5.73 0 00-5.724 5.724 5.73 5.73 0 005.724 5.723 5.73 5.73 0 005.723-5.723 5.73 5.73 0 00-5.723-5.724zm0 9.158a3.438 3.438 0 01-3.434-3.434 3.438 3.438 0 013.434-3.434 3.438 3.438 0 013.434 3.434 3.438 3.438 0 01-3.434 3.434z"/><path d="M68.343.365a1.143 1.143 0 00-1.618 0l-14.88 14.88a1.143 1.143 0 101.618 1.619l14.88-14.88a1.144 1.144 0 000-1.62zm-31.379 16.03l-14.88 14.88 1.618 1.619 14.88-14.88-1.618-1.62zM28.95 31.27l-3.433 3.435 1.619 1.618 3.434-3.434-1.62-1.619zm11.447-11.447L31.24 28.98l1.618 1.619 9.158-9.157-1.62-1.62zm3.435 3.44l-14.88 14.88 1.618 1.619 14.88-14.88-1.618-1.62zM24.848 49.585l-.413-.413a4.393 4.393 0 00-5.528-.544l-2.452 1.626a2.098 2.098 0 01-2.641-.257l-.409-.409a2.111 2.111 0 01-.003-2.963l1.14-1.142a2.112 2.112 0 012.968 0l1.611-1.625c-1.706-1.693-4.483-1.692-6.193.004l-1.149 1.148a4.41 4.41 0 00.003 6.194l.413.413a4.393 4.393 0 005.527.543l2.452-1.626a2.102 2.102 0 012.642.257l.409.409c.811.818.811 2.148.003 2.963l-1.141 1.142a2.112 2.112 0 01-2.967 0l-1.612 1.625a4.381 4.381 0 003.095 1.27 4.39 4.39 0 003.1-1.273l1.147-1.148a4.41 4.41 0 00-.002-6.194z"/><path d="M12.253 42.716l-1.619 1.62 1.145 1.144 1.619-1.62-1.145-1.144zm12.592 12.591l-1.618 1.62 1.144 1.144 1.619-1.62-1.145-1.144zm-6.866-20.603l-1.62 1.619 2.29 2.289 1.619-1.62-2.29-2.288zm4.578 4.578l-1.619 1.62 2.29 2.288 1.618-1.619-2.289-2.289zm4.578 4.579l-1.619 1.619 2.29 2.289 1.618-1.619-2.289-2.289zm4.578 4.579l-1.618 1.618 2.289 2.29 1.618-1.62-2.289-2.289zm2.29-8.013l-1.618 1.618 5.722 5.723 1.619-1.62-5.723-5.721zm3.433-3.434l-1.619 1.62 5.723 5.721 1.618-1.618-5.722-5.723zm3.434-3.428l-1.619 1.618 5.723 5.723 1.618-1.62-5.722-5.721zm3.434-3.437l-1.619 1.618 5.723 5.723 1.618-1.619-5.722-5.722zm3.436-3.436l-1.62 1.619 5.723 5.722 1.618-1.619-5.722-5.722z"/></g><defs><clipPath id="clip0"><path fill="#fff" d="M0 .029h68.679v68.679H0z"/></clipPath></defs></svg>
